icons/database.svg

<svg xmlns="http://www.w3.org/2000/svg" width="96" height="96"><path d="M4 28c.2-3.4 2.2-6.5 5.2-8.2 2.8-1.8 6.1-3.3 9.5-4.1C28.2 13 38.1 11.8 48 12c9.9-.2 19.8 1 29.3 3.7 3.4.8 6.7 2.3 9.6 4.2 3 1.7 4.9 4.7 5.1 8.1-.2 3.4-2.1 6.4-5.1 8.1-2.9 1.9-6.2 3.4-9.6 4.2C67.8 43 57.9 44.2 48 44c-9.9.2-19.8-1-29.3-3.7-3.4-.8-6.7-2.3-9.6-4.2-3-1.7-4.9-4.7-5.1-8.1zm8.1 0c.2-.5.5-.9 1-1.2 2.4-1.6 5-2.7 7.7-3.4 8.8-2.5 18-3.6 27.2-3.4 9.2-.2 18.4.9 27.2 3.4 2.7.7 5.3 1.8 7.6 3.4.5.2.9.7 1.1 1.2-.2.5-.6 1-1.1 1.2-2.3 1.6-4.9 2.7-7.6 3.4-8.8 2.5-18 3.6-27.2 3.4-9.2.2-18.4-.9-27.2-3.4-2.7-.7-5.3-1.8-7.6-3.4-.5-.2-.9-.7-1.1-1.2zm35.8 28h.2c9.2.2 18.3-.9 27.1-3.4 2.7-.7 5.3-1.8 7.6-3.4.7-.3 1.1-.9 1.2-1.7.1-1 .7-2 1.5-2.6.8-.7 1.9-1 3-.9 1 .1 2 .7 2.6 1.5.7.8 1 1.9.9 3-.4 3.2-2.3 6-5.1 7.6-2.9 1.9-6.2 3.4-9.6 4.2C67.8 63 57.9 64.2 48 64c-9.9.2-19.8-1-29.3-3.7-3.4-.8-6.7-2.3-9.6-4.2-2.8-1.6-4.7-4.4-5.1-7.6-.1-1.1.2-2.2.9-3 .6-.8 1.6-1.4 2.6-1.5 1.1-.1 2.2.2 3 .9.8.6 1.4 1.6 1.5 2.6.1.8.5 1.4 1.2 1.7 2.3 1.6 4.9 2.7 7.6 3.4 8.8 2.5 17.9 3.6 27.1 3.4h.2M84 67.5c.1-1 .7-2 1.5-2.6.8-.7 1.9-1 3-.9 1 .1 2 .7 2.6 1.5.7.8 1 1.9.9 3-.4 3.2-2.3 6-5.1 7.6-2.9 1.9-6.2 3.4-9.6 4.2C67.8 83 57.9 84.2 48 84c-9.9.2-19.8-1-29.3-3.7-3.4-.8-6.7-2.3-9.6-4.2-2.8-1.6-4.7-4.4-5.1-7.6-.1-1.1.2-2.2.9-3 .6-.8 1.6-1.4 2.6-1.5 1.1-.1 2.2.2 3 .9.8.6 1.4 1.6 1.5 2.6.1.8.5 1.4 1.2 1.7 2.3 1.6 4.9 2.7 7.6 3.4 8.8 2.5 18 3.6 27.2 3.4 9.2.2 18.4-.9 27.2-3.4 2.7-.7 5.3-1.8 7.6-3.4.7-.3 1.1-.9 1.2-1.7z" fill-rule="evenodd" fill="#454545"/></svg>

<?xml version="1.0" standalone="no"?><!-- Generator: Gravit.io --><svg xmlns="http://www.w3.org/2000/svg" xmlns:xlink="http://www.w3.org/1999/xlink" width="96" height="96"><path d=" M 4 28 C 4.2 24.6 6.2 21.5 9.2 19.8 C 12 18 15.3 16.5 18.7 15.7 C 28.2 13 38.1 11.8 48 12 C 57.9 11.8 67.8 13 77.3 15.7 C 80.7 16.5 84 18 86.9 19.9 C 89.9 21.6 91.8 24.6 92 28 C 91.8 31.4 89.9 34.4 86.9 36.1 C 84 38 80.7 39.5 77.3 40.3 C 67.8 43 57.9 44.2 48 44 C 38.1 44.2 28.2 43 18.7 40.3 C 15.3 39.5 12 38 9.1 36.1 C 6.1 34.4 4.2 31.4 4 28 Z  M 12.1 28 C 12.3 27.5 12.6 27.1 13.1 26.8 C 15.5 25.2 18.1 24.1 20.8 23.4 C 29.6 20.9 38.8 19.8 48 20 C 57.2 19.8 66.4 20.9 75.2 23.4 C 77.9 24.1 80.5 25.2 82.8 26.8 C 83.3 27 83.7 27.5 83.9 28 C 83.7 28.5 83.3 29 82.8 29.2 C 80.5 30.8 77.9 31.9 75.2 32.6 C 66.4 35.1 57.2 36.2 48 36 C 38.8 36.2 29.6 35.1 20.8 32.6 C 18.1 31.9 15.5 30.8 13.2 29.2 C 12.7 29 12.3 28.5 12.1 28 Z  M 47.9 56 C 47.9 56 48 56 48 56 L 48 56 L 48.1 56 C 57.3 56.2 66.4 55.1 75.2 52.6 C 77.9 51.9 80.5 50.8 82.8 49.2 C 83.5 48.9 83.9 48.3 84 47.5 C 84.1 46.5 84.7 45.5 85.5 44.9 C 86.3 44.2 87.4 43.9 88.5 44 C 89.5 44.1 90.5 44.7 91.1 45.5 C 91.8 46.3 92.1 47.4 92 48.5 C 91.6 51.7 89.7 54.5 86.9 56.1 C 84 58 80.7 59.5 77.3 60.3 C 67.8 63 57.9 64.2 48 64 C 38.1 64.2 28.2 63 18.7 60.3 C 15.3 59.5 12 58 9.1 56.1 C 6.3 54.5 4.4 51.7 4 48.5 C 3.9 47.4 4.2 46.3 4.9 45.5 C 5.5 44.7 6.5 44.1 7.5 44 C 8.6 43.9 9.7 44.2 10.5 44.9 C 11.3 45.5 11.9 46.5 12 47.5 C 12.1 48.3 12.5 48.9 13.2 49.2 C 15.5 50.8 18.1 51.9 20.8 52.6 C 29.6 55.1 38.7 56.2 47.9 56 C 48 56 48 56 48.1 56 M 84 67.5 C 84.1 66.5 84.7 65.5 85.5 64.9 C 86.3 64.2 87.4 63.9 88.5 64 C 89.5 64.1 90.5 64.7 91.1 65.5 C 91.8 66.3 92.1 67.4 92 68.5 C 91.6 71.7 89.7 74.5 86.9 76.1 C 84 78 80.7 79.5 77.3 80.3 C 67.8 83 57.9 84.2 48 84 C 38.1 84.2 28.2 83 18.7 80.3 C 15.3 79.5 12 78 9.1 76.1 C 6.3 74.5 4.4 71.7 4 68.5 C 3.9 67.4 4.2 66.3 4.9 65.5 C 5.5 64.7 6.5 64.1 7.5 64 C 8.6 63.9 9.7 64.2 10.5 64.9 C 11.3 65.5 11.9 66.5 12 67.5 C 12.1 68.3 12.5 68.9 13.2 69.2 C 15.5 70.8 18.1 71.9 20.8 72.6 C 29.6 75.1 38.8 76.2 48 76 C 57.2 76.2 66.4 75.1 75.2 72.6 C 77.9 71.9 80.5 70.8 82.8 69.2 C 83.5 68.9 83.9 68.3 84 67.5 Z " fill-rule="evenodd" fill="#454545" stroke="none"/><mask id="_mask_aZzV5zyy2GOBVzL5vqw6ufyU3OivZEEj"><path d=" M 4 28 C 4.2 24.6 6.2 21.5 9.2 19.8 C 12 18 15.3 16.5 18.7 15.7 C 28.2 13 38.1 11.8 48 12 C 57.9 11.8 67.8 13 77.3 15.7 C 80.7 16.5 84 18 86.9 19.9 C 89.9 21.6 91.8 24.6 92 28 C 91.8 31.4 89.9 34.4 86.9 36.1 C 84 38 80.7 39.5 77.3 40.3 C 67.8 43 57.9 44.2 48 44 C 38.1 44.2 28.2 43 18.7 40.3 C 15.3 39.5 12 38 9.1 36.1 C 6.1 34.4 4.2 31.4 4 28 Z  M 12.1 28 C 12.3 27.5 12.6 27.1 13.1 26.8 C 15.5 25.2 18.1 24.1 20.8 23.4 C 29.6 20.9 38.8 19.8 48 20 C 57.2 19.8 66.4 20.9 75.2 23.4 C 77.9 24.1 80.5 25.2 82.8 26.8 C 83.3 27 83.7 27.5 83.9 28 C 83.7 28.5 83.3 29 82.8 29.2 C 80.5 30.8 77.9 31.9 75.2 32.6 C 66.4 35.1 57.2 36.2 48 36 C 38.8 36.2 29.6 35.1 20.8 32.6 C 18.1 31.9 15.5 30.8 13.2 29.2 C 12.7 29 12.3 28.5 12.1 28 Z  M 47.9 56 C 47.9 56 48 56 48 56 L 48 56 L 48.1 56 C 57.3 56.2 66.4 55.1 75.2 52.6 C 77.9 51.9 80.5 50.8 82.8 49.2 C 83.5 48.9 83.9 48.3 84 47.5 C 84.1 46.5 84.7 45.5 85.5 44.9 C 86.3 44.2 87.4 43.9 88.5 44 C 89.5 44.1 90.5 44.7 91.1 45.5 C 91.8 46.3 92.1 47.4 92 48.5 C 91.6 51.7 89.7 54.5 86.9 56.1 C 84 58 80.7 59.5 77.3 60.3 C 67.8 63 57.9 64.2 48 64 C 38.1 64.2 28.2 63 18.7 60.3 C 15.3 59.5 12 58 9.1 56.1 C 6.3 54.5 4.4 51.7 4 48.5 C 3.9 47.4 4.2 46.3 4.9 45.5 C 5.5 44.7 6.5 44.1 7.5 44 C 8.6 43.9 9.7 44.2 10.5 44.9 C 11.3 45.5 11.9 46.5 12 47.5 C 12.1 48.3 12.5 48.9 13.2 49.2 C 15.5 50.8 18.1 51.9 20.8 52.6 C 29.6 55.1 38.7 56.2 47.9 56 C 48 56 48 56 48.1 56 M 84 67.5 C 84.1 66.5 84.7 65.5 85.5 64.9 C 86.3 64.2 87.4 63.9 88.5 64 C 89.5 64.1 90.5 64.7 91.1 65.5 C 91.8 66.3 92.1 67.4 92 68.5 C 91.6 71.7 89.7 74.5 86.9 76.1 C 84 78 80.7 79.5 77.3 80.3 C 67.8 83 57.9 84.2 48 84 C 38.1 84.2 28.2 83 18.7 80.3 C 15.3 79.5 12 78 9.1 76.1 C 6.3 74.5 4.4 71.7 4 68.5 C 3.9 67.4 4.2 66.3 4.9 65.5 C 5.5 64.7 6.5 64.1 7.5 64 C 8.6 63.9 9.7 64.2 10.5 64.9 C 11.3 65.5 11.9 66.5 12 67.5 C 12.1 68.3 12.5 68.9 13.2 69.2 C 15.5 70.8 18.1 71.9 20.8 72.6 C 29.6 75.1 38.8 76.2 48 76 C 57.2 76.2 66.4 75.1 75.2 72.6 C 77.9 71.9 80.5 70.8 82.8 69.2 C 83.5 68.9 83.9 68.3 84 67.5 Z " fill-rule="evenodd" fill="white" stroke="none"/></mask><path d=" M 4 28 C 4.2 24.6 6.2 21.5 9.2 19.8 C 12 18 15.3 16.5 18.7 15.7 C 28.2 13 38.1 11.8 48 12 C 57.9 11.8 67.8 13 77.3 15.7 C 80.7 16.5 84 18 86.9 19.9 C 89.9 21.6 91.8 24.6 92 28 C 91.8 31.4 89.9 34.4 86.9 36.1 C 84 38 80.7 39.5 77.3 40.3 C 67.8 43 57.9 44.2 48 44 C 38.1 44.2 28.2 43 18.7 40.3 C 15.3 39.5 12 38 9.1 36.1 C 6.1 34.4 4.2 31.4 4 28 Z  M 12.1 28 C 12.3 27.5 12.6 27.1 13.1 26.8 C 15.5 25.2 18.1 24.1 20.8 23.4 C 29.6 20.9 38.8 19.8 48 20 C 57.2 19.8 66.4 20.9 75.2 23.4 C 77.9 24.1 80.5 25.2 82.8 26.8 C 83.3 27 83.7 27.5 83.9 28 C 83.7 28.5 83.3 29 82.8 29.2 C 80.5 30.8 77.9 31.9 75.2 32.6 C 66.4 35.1 57.2 36.2 48 36 C 38.8 36.2 29.6 35.1 20.8 32.6 C 18.1 31.9 15.5 30.8 13.2 29.2 C 12.7 29 12.3 28.5 12.1 28 Z  M 47.9 56 C 47.9 56 48 56 48 56 L 48 56 L 48.1 56 C 57.3 56.2 66.4 55.1 75.2 52.6 C 77.9 51.9 80.5 50.8 82.8 49.2 C 83.5 48.9 83.9 48.3 84 47.5 C 84.1 46.5 84.7 45.5 85.5 44.9 C 86.3 44.2 87.4 43.9 88.5 44 C 89.5 44.1 90.5 44.7 91.1 45.5 C 91.8 46.3 92.1 47.4 92 48.5 C 91.6 51.7 89.7 54.5 86.9 56.1 C 84 58 80.7 59.5 77.3 60.3 C 67.8 63 57.9 64.2 48 64 C 38.1 64.2 28.2 63 18.7 60.3 C 15.3 59.5 12 58 9.1 56.1 C 6.3 54.5 4.4 51.7 4 48.5 C 3.9 47.4 4.2 46.3 4.9 45.5 C 5.5 44.7 6.5 44.1 7.5 44 C 8.6 43.9 9.7 44.2 10.5 44.9 C 11.3 45.5 11.9 46.5 12 47.5 C 12.1 48.3 12.5 48.9 13.2 49.2 C 15.5 50.8 18.1 51.9 20.8 52.6 C 29.6 55.1 38.7 56.2 47.9 56 C 48 56 48 56 48.1 56 M 84 67.5 C 84.1 66.5 84.7 65.5 85.5 64.9 C 86.3 64.2 87.4 63.9 88.5 64 C 89.5 64.1 90.5 64.7 91.1 65.5 C 91.8 66.3 92.1 67.4 92 68.5 C 91.6 71.7 89.7 74.5 86.9 76.1 C 84 78 80.7 79.5 77.3 80.3 C 67.8 83 57.9 84.2 48 84 C 38.1 84.2 28.2 83 18.7 80.3 C 15.3 79.5 12 78 9.1 76.1 C 6.3 74.5 4.4 71.7 4 68.5 C 3.9 67.4 4.2 66.3 4.9 65.5 C 5.5 64.7 6.5 64.1 7.5 64 C 8.6 63.9 9.7 64.2 10.5 64.9 C 11.3 65.5 11.9 66.5 12 67.5 C 12.1 68.3 12.5 68.9 13.2 69.2 C 15.5 70.8 18.1 71.9 20.8 72.6 C 29.6 75.1 38.8 76.2 48 76 C 57.2 76.2 66.4 75.1 75.2 72.6 C 77.9 71.9 80.5 70.8 82.8 69.2 C 83.5 68.9 83.9 68.3 84 67.5 Z " fill-rule="evenodd" fill="none" stroke="none" stroke-width="16" mask="url(#_mask_aZzV5zyy2GOBVzL5vqw6ufyU3OivZEEj)"/></svg>
